packages/foundations/assets/icons/functional/images/environment/leaf_12.svg

<svg width="12" height="12" viewBox="0 0 12 12" fill="none" xmlns="http://www.w3.org/2000/svg">
<g clip-path="url(#clip0_232_211)">
<path fill-rule="evenodd" clip-rule="evenodd" d="M10.2547 2.9094C10.6027 2.96958 10.8661 3.31532 10.7742 3.6563C10.0133 6.47947 8.79198 8.19333 7.26795 8.86742C6.14953 9.36211 4.92797 9.22358 4.14823 8.66996C3.29759 8.96312 2.44595 8.96547 1.59333 8.67702C0.861302 8.41009 1.26927 7.27583 1.99639 7.54673C3.12011 7.9654 4.78727 7.44759 6.48304 5.61424C7.15352 5.00331 7.85558 5.84561 7.40625 6.38084C6.81821 7.03002 6.21161 7.55738 5.58645 7.96291C5.95586 8.00901 6.37837 7.9583 6.78254 7.76998C7.92953 7.23555 8.80657 5.98844 9.41366 4.02865C7.24224 3.96932 5.74258 4.59331 4.9147 5.90061C4.38331 6.79387 3.41054 6.12455 3.819 5.4096C4.47953 4.30508 5.46916 3.57728 6.71054 3.1679C7.73362 2.8305 8.88675 2.74465 10.2547 2.9094Z" fill="#1A1C1F"/>
</g>
<defs>
<clipPath id="clip0_232_211">
<rect width="12" height="12" fill="white"/>
</clipPath>
</defs>
</svg>

<svg xmlns="http://www.w3.org/2000/svg" width="12" height="12" fill="none"><g clip-path="url(#a)"><path fill="#1A1C1F" fill-rule="evenodd" d="M10.255 2.91c.348.06.611.405.52.746-.762 2.823-1.983 4.537-3.507 5.211-1.118.495-2.34.357-3.12-.197a3.85 3.85 0 0 1-2.555.007c-.732-.267-.324-1.401.403-1.13 1.124.418 2.791-.1 4.487-1.933.67-.61 1.373.232.923.767a9.3 9.3 0 0 1-1.82 1.582c.37.046.792-.005 1.197-.193q1.72-.802 2.63-3.741-3.255-.09-4.498 1.872c-.532.893-1.504.224-1.096-.491.66-1.105 1.65-1.833 2.892-2.242 1.023-.338 2.176-.423 3.544-.259" clip-rule="evenodd"/></g><defs><clipPath id="a"><path fill="#fff" d="M0 0h12v12H0z"/></clipPath></defs></svg>
